X: 3334
M: C
L: 1/8
K: D
f2(ed) dcdB | AFDF AFBA |\
f2(fe) dcdB | AFDF AFBA |\
|: (cd) |\
e^dec A2(=de) | fefd A2f2 |\
gfeg fedf | edcB A2(cd) |\
e^dec A2(=de) | fefd A2a2 |\
^gfef edcB |[1 A2A2A2 :|[2 A2(^GA) Bcde |]


